resources/haticons/SVG/compress.svg

<!-- Generated by IcoMoon.io -->
<svg version="1.1" xmlns="http://www.w3.org/2000/svg" width="24" height="24" viewBox="0 0 24 24">
<title>compress</title>
<path d="M3.984 12h16.031v2.016h-16.031v-2.016zM3.984 9h16.031v2.016h-16.031v-2.016zM15.984 3.984l-3.984 4.031-3.984-4.031h3v-3h1.969v3h3zM8.016 18.984l3.984-3.984 3.984 3.984h-3v3h-1.969v-3h-3z"></path>
</svg>

<svg xmlns="http://www.w3.org/2000/svg" width="24" height="24"><path d="M3.984 12h16.031v2.016H3.984V12zm0-3h16.031v2.016H3.984V9zm12-5.016L12 8.015 8.016 3.984h3v-3h1.969v3h3zm-7.968 15L12 15l3.984 3.984h-3v3h-1.969v-3h-3z"/></svg>
